X:817
T:Crop the Croppies
S:NLS MS.21743, tunebook of Archibald Clark, fifer in the 42nd, 1813
M:C
L:1/8
Q:1/2=108
K:D
(dA)FA (dA)FA|(de)cd e2e2|(de)fd gfed|(cA)Bc d2d2:|
 A2 AF  A2 AF|(BAGF) G2E2| G2 GE G2GB|(AGFE) F2D2:|

